app/result/img/sl-icon-1.svg

<svg width="31" height="31" viewBox="0 0 31 31" fill="none" xmlns="http://www.w3.org/2000/svg">
<path d="M26.3984 24.9453C26.7326 24.9453 27.0039 24.674 27.0039 24.3398C27.0039 24.0057 26.7326 23.7344 26.3984 23.7344C26.0642 23.7344 25.793 24.0057 25.793 24.3398C25.793 24.674 26.0642 24.9453 26.3984 24.9453Z" fill="#BE1622"/>
<path d="M6.05469 21.3125C4.05144 21.3125 2.42188 22.9421 2.42188 24.9453C2.42188 26.9486 4.05144 28.5781 6.05469 28.5781C8.05794 28.5781 9.6875 26.9486 9.6875 24.9453C9.6875 22.9421 8.05794 21.3125 6.05469 21.3125ZM6.05469 27.3672C4.71935 27.3672 3.63281 26.2807 3.63281 24.9453C3.63281 23.61 4.71935 22.5234 6.05469 22.5234C7.39003 22.5234 8.47656 23.61 8.47656 24.9453C8.47656 26.2807 7.39003 27.3672 6.05469 27.3672Z" fill="#BE1622"/>
<path d="M30.3945 20.1016H17.5496L26.3045 11.3466C26.5411 11.1101 26.5411 10.7267 26.3045 10.4902L20.3111 4.49608C20.1976 4.38255 20.0436 4.3187 19.883 4.3187C19.7224 4.3187 19.5685 4.38255 19.4549 4.49608L10.8984 13.0526V0.605469C10.8984 0.271042 10.6274 0 10.293 0H1.81641C1.48198 0 1.21094 0.271042 1.21094 0.605469V21.3134C0.429031 22.3555 0 23.6365 0 24.9453C0 28.2839 2.71609 31 6.05469 31C7.36354 31 8.64449 30.571 9.68655 29.7891H30.3945C30.729 29.7891 31 29.518 31 29.1836V20.707C31 20.3726 30.729 20.1016 30.3945 20.1016ZM15.6017 10.0619L20.739 15.1996L16.4579 19.4807L11.3199 14.3435L15.6017 10.0619ZM12.0209 23.9177C11.8584 22.9761 11.4739 22.0802 10.8984 21.3134V15.6346L15.6015 20.3371L12.0209 23.9177ZM2.42188 14.0469V7.62891H9.6875V14.0469H2.42188ZM2.42188 15.2578H9.6875V20.1001C8.65063 19.3206 7.38412 18.8906 6.05469 18.8906C4.72526 18.8906 3.45874 19.3206 2.42188 20.1001V15.2578ZM12.0763 25.5749L15.7422 21.909V28.5781H10.8977C11.5524 27.7059 11.9634 26.6681 12.0763 25.5749ZM16.9531 21.3125H23.3711V28.5781H16.9531V21.3125ZM19.883 5.78057L25.0203 10.9183L21.5954 14.3435L16.4581 9.20549L19.883 5.78057ZM9.6875 1.21094V6.41797H2.42188V1.21094H9.6875ZM1.21094 24.9453C1.21094 22.2543 3.39181 20.1016 6.05469 20.1016C8.75186 20.1016 10.8984 22.2914 10.8984 24.9453C10.8984 27.5862 8.76392 29.7891 6.05469 29.7891C3.38377 29.7891 1.21094 27.6162 1.21094 24.9453ZM29.7891 28.5781H27.0039V26.7617C27.0039 26.4273 26.7329 26.1562 26.3984 26.1562C26.064 26.1562 25.793 26.4273 25.793 26.7617V28.5781H24.582V21.3125H29.7891V28.5781Z" fill="#BE1622"/>
</svg>

<svg width="31" height="31" viewBox="0 0 31 31" fill="none" xmlns="http://www.w3.org/2000/svg"><path d="M26.398 24.945a.606.606 0 1 0 0-1.211.606.606 0 0 0 0 1.211zM6.055 21.313a3.637 3.637 0 0 0-3.633 3.632 3.637 3.637 0 0 0 3.633 3.633 3.637 3.637 0 0 0 3.633-3.633 3.637 3.637 0 0 0-3.633-3.633zm0 6.054a2.425 2.425 0 0 1-2.422-2.422 2.425 2.425 0 0 1 2.422-2.422 2.425 2.425 0 0 1 2.422 2.422 2.425 2.425 0 0 1-2.422 2.422z" fill="#BE1622"/><path d="M30.395 20.102H17.55l8.755-8.755a.605.605 0 0 0 0-.857L20.31 4.496a.605.605 0 0 0-.856 0l-8.557 8.557V.605A.605.605 0 0 0 10.293 0H1.816a.605.605 0 0 0-.605.605v20.708A6.069 6.069 0 0 0 0 24.945 6.062 6.062 0 0 0 6.055 31c1.309 0 2.59-.429 3.632-1.21h20.708a.605.605 0 0 0 .605-.606v-8.477a.605.605 0 0 0-.605-.605zm-14.793-10.04l5.137 5.138-4.281 4.28-5.138-5.136 4.282-4.282zM12.02 23.918a6.062 6.062 0 0 0-1.123-2.605v-5.678l4.704 4.702-3.581 3.58zm-9.6-9.871V7.629h7.267v6.418H2.421zm0 1.21h7.267V20.1a6.03 6.03 0 0 0-3.633-1.21 6.03 6.03 0 0 0-3.633 1.21v-4.842zm9.655 10.318l3.666-3.666v6.67h-4.844a6.04 6.04 0 0 0 1.178-3.004zm4.877-4.262h6.418v7.265h-6.418v-7.265zm2.93-15.532l5.137 5.137-3.425 3.426-5.137-5.139 3.425-3.424zM9.688 1.21v5.207H2.421V1.211h7.265zM1.21 24.945a4.841 4.841 0 0 1 4.844-4.843 4.844 4.844 0 1 1-4.844 4.844zm28.578 3.633h-2.785v-1.816a.605.605 0 1 0-1.211 0v1.816h-1.211v-7.265h5.207v7.265z" fill="#BE1622"/></svg>
